common/src/main/resources/icons/javaee/newui/javaeeToolWindow@20x20.svg

<!--
  - The MIT License (MIT)
  -
  - Copyright (c) 2015-2023 Elior "Mallowigi" Boukhobza
  -
  - Permission is hereby granted, free of charge, to any person obtaining a copy
  - of this software and associated documentation files (the "Software"), to deal
  - in the Software without restriction, including without limitation the rights
  - to use, copy, modify, merge, publish, distribute, sublicense, and/or sell
  - copies of the Software, and to permit persons to whom the Software is
  - furnished to do so, subject to the following conditions:
  -
  - The above copyright notice and this permission notice shall be included in all
  - copies or substantial portions of the Software.
  -
  - THE SOFTWARE IS PROVIDED "AS IS", WITHOUT WARRANTY OF ANY KIND, EXPRESS OR
  - IMPLIED, INCLUDING BUT NOT LIMITED TO THE WARRANTIES OF MERCHANTABILITY,
  - FITNESS FOR A PARTICULAR PURPOSE AND NONINFRINGEMENT. IN NO EVENT SHALL THE
  - AUTHORS OR COPYRIGHT HOLDERS BE LIABLE FOR ANY CLAIM, DAMAGES OR OTHER
  - LIABILITY, WHETHER IN AN ACTION OF CONTRACT, TORT OR OTHERWISE, ARISING FROM,
  - OUT OF OR IN CONNECTION WITH THE SOFTWARE OR THE USE OR OTHER DEALINGS IN THE
  - SOFTWARE.
  -
  -->


<svg version="1.1" xmlns="http://www.w3.org/2000/svg" width="20px" height="20px" viewBox="0 0 378 512">
  <path fill="#C792EA"
        d="M121.6244507,395.9629517c0,0-19.5661392,11.3712463,13.9104004,15.2346802c40.5661316,4.6202087,61.317215,3.9630127,106.0255737-4.5007019c0,0,11.749649,7.3684387,28.1791992,13.7610168C169.5092163,463.4138184,42.9018402,417.9686279,121.6244507,395.9629517z M109.3670044,339.9032288c0,0-21.9459534,16.2503662,11.5704117,19.7154846c43.3342819,4.460907,77.5675583,4.8392639,136.7937317-6.5718079c0,0,8.184906,8.3043823,21.0697021,12.8449402C157.6201935,401.3200073,22.6387177,368.6799011,109.3670044,339.9032288z M212.6244659,244.8207397c24.6886749,28.4428711-6.4921875,54.0184937-6.4921875,54.0184937s62.7112274-32.3613281,33.9146271-72.907547c-26.9046783-37.7979889-47.5163422-56.5775299,64.1451111-121.3399353C304.1920166,104.5917511,128.9046173,148.3703003,212.6244659,244.8207397z M345.1763611,437.4152832c0,0,14.4779358,11.9388733-15.9516602,21.1593323c-57.8520508,17.5248718-240.7879944,22.8221741-291.6101685,0.696991c-18.2617283-7.9459229,15.9914551-18.9786377,26.7652855-21.2887573c11.2318649-2.4295654,17.6642914-1.9914551,17.6642914-1.9914551c-20.3129272-14.318634-131.3171844,28.0995483-56.3783722,40.2474976C230.0298309,509.3768616,398.1891174,461.3327637,345.1763611,437.4152832z M131.0241852,281.8420715c0,0-93.071106,22.0953064-32.9687042,30.1209106c25.3712692,3.4053955,75.9544678,2.6287231,123.0924377-1.3143616c38.5149231-3.2460938,77.1891785-10.1564941,77.1891785-10.1564941s-13.5817871,5.815094-23.3997192,12.5263062c-94.4949951,24.8534851-277.0326538,13.2830811-224.4779053-12.1279907C94.9089661,279.4025269,131.0241852,281.8420715,131.0241852,281.8420715z M297.9587097,375.1322327c96.0682678-49.9061279,51.6387024-97.8805237,20.6515198-91.4281616c-7.6073914,1.5732727-10.9928894,2.9473877-10.9928894,2.9473877s2.8278809-4.421051,8.204834-6.3328552c61.3172302-21.5675659,108.4950256,63.5874634-19.7951355,97.3228455C296.0270386,377.641449,297.5206604,376.3071899,297.9587097,375.1322327z M240.0170288,0c0,0,53.2019958,53.211937-50.4537506,135.0412292c-83.1237335,65.6386719-18.9587402,103.0782318-0.0398254,145.8349609c-48.512085-43.7723846-84.1194763-82.3072205-60.2418213-118.1735077C164.3513184,110.0483475,261.4850464,84.5376816,240.0170288,0z M140.4637146,510.3925171c92.2048035,5.8947144,233.7880249-3.2659912,237.133667-46.8989868c0,0-6.4523315,16.5490417-76.1934509,29.672821c-78.7026825,14.8164673-175.7666931,13.0839233-233.3200073,3.5846252C68.0839157,496.7509766,79.8634338,506.5091553,140.4637146,510.3925171z"/>
</svg>

<svg xmlns="http://www.w3.org/2000/svg" width="20" height="20" viewBox="0 0 378 512"><path fill="#C792EA" d="M121.624 395.963s-19.566 11.371 13.91 15.235c40.567 4.62 61.318 3.963 106.026-4.501 0 0 11.75 7.368 28.18 13.76-100.23 42.957-226.838-2.488-148.116-24.494m-12.257-56.06s-21.946 16.25 11.57 19.716c43.335 4.46 77.568 4.839 136.794-6.572 0 0 8.185 8.304 21.07 12.845-121.18 35.428-256.162 2.788-169.434-25.989m103.257-95.082c24.69 28.443-6.492 54.018-6.492 54.018s62.712-32.361 33.915-72.907c-26.905-37.798-47.516-56.578 64.145-121.34 0 0-175.287 43.778-91.568 140.229m132.552 192.594s14.478 11.94-15.951 21.16c-57.852 17.524-240.788 22.822-291.61.697-18.262-7.946 15.991-18.979 26.765-21.29 11.232-2.429 17.664-1.99 17.664-1.99-20.313-14.32-131.317 28.099-56.378 40.247 204.364 33.138 372.523-14.906 319.51-38.824M131.024 281.842s-93.07 22.095-32.969 30.121c25.372 3.405 75.955 2.629 123.093-1.314 38.515-3.246 77.19-10.157 77.19-10.157s-13.583 5.815-23.4 12.526C180.441 337.872-2.096 326.302 50.458 300.89c44.45-21.487 80.565-19.048 80.565-19.048m166.935 93.29c96.068-49.906 51.638-97.88 20.651-91.428-7.607 1.573-10.993 2.947-10.993 2.947s2.828-4.42 8.205-6.332c61.317-21.568 108.495 63.587-19.795 97.322 0 0 1.494-1.334 1.932-2.509M240.017 0s53.202 53.212-50.454 135.041c-83.123 65.639-18.958 103.078-.04 145.835-48.512-43.772-84.119-82.307-60.241-118.173C164.352 110.048 261.485 84.538 240.017 0m-99.553 510.393c92.205 5.894 233.788-3.266 237.133-46.9 0 0-6.452 16.55-76.193 29.673-78.703 14.817-175.767 13.084-233.32 3.585 0 0 11.78 9.758 72.38 13.642"/></svg>
